X: 182
T: Miss Fraser's Reel
R: reel
B: Robert Bremner "A Collection of Scots Reels or Country Dances" p.18 #2
S: http://imslp.org/wiki/A_Collection_of_Scots_Reels_or_Country_Dances_(Bremner,_Robert)
Z: 2013 John Chambers <jc:trillian.mit.edu>
M: C|
L: 1/8
K: G
% - - - - - - - - - - - - - - - - - - - - - - - - -
V: 1
|:\
gG-GA GAGA | gG-GB TA>GE2 |\
gG-GA GABG | A/A/A (b/a/g) e2g2 :|
|:\
dega (b/a/g) (a/g/e) | (d/e/f) gB TA>GE2 |\
dega (b/a/g) ab | d/d/d (b/a/g) e2g2 :|
% - - - - - - - - - - - - - - - - - - - - - - - - -
V: 2 clef=bass middle=d
|:\
g2g2 g2g2 | g2g2 a2a2 |\
g2g2 g2g2 | a2g2 g2g2 :|\
|:\
g2g2
g2g2 | g2g2 a2a2 |\
g2g2 g2g2 | g2g2 g2g2 :|
% - - - - - - - - - - - - - - - - - - - - - - - - -

% missing page

% missing page

%%sep 1 1 500
%%sep 1 1 500
